X:173
M:C |
L:1/8
K:G
|: B2d2d2 ef | gfga g4 | B2d2d2cB | c2A2 A4 | B2d2d2 ef | gfga g4 | BcdB ABcA | B2G2 G4 :|

